X: 2
T: Alexander's
R: hornpipe
M: 4/4
L: 1/8
K: Dmaj
(3ABc|"D"dAFA "D"DFAd|"D"fdcd "A"Acef|"Em"~g3e "D"fdcd|"A"(3efe (3dcB "D"A2 (3ABc|"D"dAFA "D"DFAd|"D"fdcd "A"Acef|"Em"~g3e "D"fdcd|"A"(3efe dc "D"d2:||:AG|"D"FAdA "D"FAdA|"G"GBdB "G"GBdB|"A"Acec "A"Acec|"D"dfaf "D"(3gfe dA|"D"FAdA "D"FAdA|"G"GBdB "G"GBdB|"A"Acef "G"gecd|"A"(3efe dc "D"d2:|


Tune 666	Setting 666

